flaticon/romance-lifestyle/key.svg

<svg xmlns="http://www.w3.org/2000/svg" width="32" height="32" viewBox="0 0 24 24">
    <path d="M 23.414062 20.601562 L 14.417969 11.605469 C 14.339844 8.125 14.339844 5.925781 14.339844 5.207031 C 14.417969 1.847656 11.699219 0.128906 9.859375 0.0078125 C 8.339844 -0.0703125 7.023438 0.367188 6.101562 1.289062 C 5.101562 2.289062 4.78125 3.726562 5.183594 5.207031 C 3.703125 4.808594 2.261719 5.128906 1.304688 6.085938 C 0.382812 7.007812 -0.0546875 8.246094 0.0234375 9.84375 C 0.105469 11.726562 1.863281 14.445312 5.222656 14.324219 C 6.183594 14.285156 9.179688 14.363281 11.621094 14.402344 L 17.515625 20.300781 L 16.9375 20.882812 C 16.777344 21.042969 16.777344 21.28125 16.9375 21.441406 C 17.019531 21.519531 17.097656 21.5625 17.21875 21.5625 C 17.296875 21.5625 17.417969 21.519531 17.496094 21.441406 L 18.078125 20.859375 L 18.636719 21.421875 L 18.058594 22 C 17.898438 22.160156 17.898438 22.402344 18.058594 22.5625 C 18.136719 22.640625 18.21875 22.679688 18.335938 22.679688 C 18.417969 22.679688 18.535156 22.640625 18.617188 22.5625 L 19.195312 21.980469 L 19.757812 22.539062 L 19.175781 23.121094 C 19.015625 23.28125 19.015625 23.519531 19.175781 23.679688 C 19.257812 23.761719 19.335938 23.800781 19.457031 23.800781 C 19.578125 23.800781 19.65625 23.761719 19.738281 23.679688 L 20.316406 23.101562 L 20.617188 23.398438 C 20.976562 23.800781 21.496094 24 22.015625 24 C 22.535156 24 23.054688 23.800781 23.414062 23.441406 C 24.175781 22.640625 24.175781 21.402344 23.414062 20.601562 Z M 22.855469 22.839844 C 22.65625 23.082031 22.335938 23.199219 22.015625 23.199219 C 21.695312 23.199219 21.417969 23.082031 21.175781 22.839844 L 12.058594 13.722656 C 11.980469 13.644531 11.898438 13.605469 11.78125 13.605469 C 9.699219 13.5625 7.222656 13.523438 5.863281 13.523438 C 5.582031 13.523438 5.382812 13.523438 5.222656 13.523438 C 2.382812 13.605469 0.945312 11.363281 0.863281 9.804688 C 0.824219 8.445312 1.144531 7.40625 1.902344 6.648438 C 2.785156 5.726562 4.261719 5.566406 5.703125 6.207031 C 5.863281 6.285156 6.023438 6.246094 6.140625 6.125 C 6.261719 6.007812 6.300781 5.847656 6.222656 5.6875 C 5.582031 4.207031 5.742188 2.769531 6.660156 1.847656 C 7.421875 1.089844 8.460938 0.730469 9.820312 0.808594 C 11.339844 0.890625 13.578125 2.367188 13.539062 5.167969 C 13.5 5.96875 13.539062 8.167969 13.621094 11.765625 C 13.621094 11.882812 13.660156 11.964844 13.738281 12.042969 L 22.855469 21.160156 C 23.335938 21.601562 23.335938 22.359375 22.855469 22.839844 Z M 22.855469 22.839844"/>
    <path d="M 7.023438 7.007812 C 6.542969 7.445312 6.300781 8.046875 6.300781 8.6875 C 6.300781 9.324219 6.582031 9.925781 7.023438 10.367188 C 7.460938 10.84375 8.101562 11.085938 8.699219 11.085938 C 9.339844 11.085938 9.941406 10.886719 10.421875 10.40625 C 10.859375 9.964844 11.140625 9.324219 11.140625 8.6875 C 11.140625 8.046875 10.859375 7.445312 10.421875 7.007812 C 9.460938 6.085938 7.941406 6.085938 7.023438 7.007812 Z M 9.859375 9.804688 C 9.21875 10.445312 8.222656 10.445312 7.582031 9.804688 C 7.261719 9.527344 7.101562 9.085938 7.101562 8.6875 C 7.101562 8.285156 7.261719 7.886719 7.582031 7.566406 C 7.902344 7.246094 8.300781 7.085938 8.699219 7.085938 C 9.140625 7.085938 9.539062 7.246094 9.859375 7.566406 C 10.179688 7.847656 10.339844 8.285156 10.339844 8.6875 C 10.339844 9.085938 10.179688 9.484375 9.859375 9.804688 Z M 9.859375 9.804688"/>
</svg>

<svg xmlns="http://www.w3.org/2000/svg" width="32" height="32" viewBox="0 0 24 24">
    <path d="M23.414 20.602l-8.996-8.997c-.078-3.48-.078-5.68-.078-6.398.078-3.36-2.64-5.078-4.48-5.2C8.34-.07 7.022.368 6.101 1.29c-1 1-1.32 2.438-.918 3.918-1.48-.398-2.922-.078-3.88.879-.921.922-1.359 2.16-1.28 3.758.081 1.883 1.84 4.601 5.199 4.48.96-.039 3.957.04 6.398.078l5.895 5.899-.578.582a.385.385 0 0 0 0 .558c.082.079.16.122.28.122.079 0 .2-.043.278-.122l.582-.582.559.563-.578.578a.39.39 0 0 0 0 .563c.078.078.16.117.277.117.082 0 .2-.04.281-.117l.578-.583.563.56-.582.581a.385.385 0 0 0 0 .559c.082.082.16.12.281.12.121 0 .2-.038.281-.12l.578-.578.301.296c.36.403.88.602 1.399.602.52 0 1.039-.2 1.398-.559a2.05 2.05 0 0 0 0-2.84zm-.559 2.238c-.199.242-.52.36-.84.36-.32 0-.597-.118-.84-.36l-9.116-9.117a.363.363 0 0 0-.278-.118 351.409 351.409 0 0 0-5.918-.082h-.64c-2.84.082-4.278-2.16-4.36-3.718-.039-1.36.282-2.399 1.04-3.157.882-.921 2.359-1.082 3.8-.441.16.078.32.04.438-.082a.362.362 0 0 0 .082-.438c-.641-1.48-.48-2.917.437-3.84C7.422 1.09 8.46.73 9.82.81c1.52.082 3.758 1.558 3.72 4.359-.04.8 0 3 .081 6.598 0 .117.04.199.117.277l9.117 9.117c.48.442.48 1.2 0 1.68zm0 0"/>
    <path d="M7.023 7.008a2.234 2.234 0 0 0-.722 1.68c0 .636.281 1.238.722 1.68.438.476 1.079.718 1.676.718.64 0 1.242-.2 1.723-.68a2.505 2.505 0 0 0 .719-1.719c0-.64-.282-1.242-.72-1.68-.96-.921-2.48-.921-3.398 0zM9.86 9.805a1.59 1.59 0 0 1-2.277 0c-.32-.278-.48-.72-.48-1.117 0-.403.16-.801.48-1.122.32-.32.719-.48 1.117-.48.442 0 .84.16 1.16.48.32.282.48.72.48 1.122 0 .398-.16.796-.48 1.117zm0 0"/>
</svg>
